packages/foundations/assets/icons/functional/images/audio & video/subtitles_24.svg

<svg xmlns="http://www.w3.org/2000/svg" width="24" height="24" fill="none"><g clip-path="url(#a)"><path fill="#1A1C1F" fill-rule="evenodd" d="M19.5 5C20.875 5 22 6.125 22 7.5v9c0 1.375-1.125 2.5-2.5 2.5h-15A2.507 2.507 0 0 1 2 16.5v-9C2 6.125 3.125 5 4.5 5zm0 2h-15c-.281 0-.5.219-.5.5v9c0 .281.219.5.5.5h15c.281 0 .5-.219.5-.5v-9c0-.281-.219-.5-.5-.5M6 14c0 .563.438 1 1 1h5c.531 0 1-.438 1-1s-.469-1-1-1H7c-.563 0-1 .438-1 1m9 0c0 .563.469 1 1.031 1h.938C17.53 15 18 14.562 18 14s-.469-1-1.031-1h-.938C15.47 13 15 13.438 15 14" clip-rule="evenodd"/></g><defs><clipPath id="a"><path fill="#fff" d="M0 0h24v24H0z"/></clipPath></defs></svg>

<svg width="24" height="24" viewBox="0 0 24 24" fill="none" xmlns="http://www.w3.org/2000/svg">
<g clip-path="url(#clip0_184_412)">
<path fill-rule="evenodd" clip-rule="evenodd" d="M19.5 5C20.875 5 22 6.125 22 7.5V16.5C22 17.875 20.875 19 19.5 19H4.5C3.83753 18.9982 3.20271 18.7342 2.73427 18.2657C2.26583 17.7973 2.00185 17.1625 2 16.5V7.5C2 6.125 3.125 5 4.5 5H19.5ZM19.5 7H4.5C4.219 7 4 7.219 4 7.5V16.5C4 16.781 4.219 17 4.5 17H19.5C19.781 17 20 16.781 20 16.5V7.5C20 7.219 19.781 7 19.5 7ZM6 14C6 14.563 6.438 15 7 15H12C12.531 15 13 14.562 13 14C13 13.437 12.531 13 12 13H7C6.437 13 6 13.438 6 14ZM15 14C15 14.563 15.469 15 16.031 15H16.969C17.53 15 18 14.562 18 14C18 13.437 17.531 13 16.969 13H16.031C15.47 13 15 13.438 15 14Z" fill="#1A1C1F"/>
</g>
<defs>
<clipPath id="clip0_184_412">
<rect width="24" height="24" fill="white"/>
</clipPath>
</defs>
</svg>
